X: 4
T: The Piper's Despair
R: reel
M: 4/4
L: 1/8
K: Amix
|: EFGA BAFA | (3Bcd AB dBAF | DFDF ADFA | A2 FA dBAF |EFGA BAFA | (3Bcd AB dBAF | DEFG dfaf | gfed Be e2 :|||:ef (3gfe bege | efga b2 af | df f2 af f2 | df f2 agfd |ef (3gfe bege | efga b2 af | dcdf a3f | gfed Be e2 :||


Tune 336	Setting 28035

